X:57
T:Flower of the Wells. THO5.057, The
M:6/8
L:1/8
B:Thompson's Complete Collection of 200 Favourite Dances Vol.5
F:https://www.libraryofdance.org/manuals/1780c-Thompson-Compleat-5.pdf
Z:vmp. Peter Dunk 2024
Q:3/8=110
K:D
dcd A2A|d2A f2d|aba a2a|fed cBA|
afa geg|fad cBA|agf edc|d3 D3:|
|:afa d2d |fdf A3|dcd B2B|f3 F3|
g2e f2d|e2c f2e|dfb dec|B3 B3|
dcd A2A|d2A f2d|aba afd|efd cBA|
FAd GBe|Acf Bdg|faf ecA|d3 D3:|
W:
W:The 1st Gent foot it to the 2nd Lady and turn ./.
W:The 1st Lady do the same to the 2nd Gent ./:
W:Hey contrary sides then on your own side :/.
W:Cross over hands four at bottom, Right and Left at top :/:

